X: 4
T:John Ryan's Polka
T:Forty Pound Float
R:Polka
C:Trad
S:Black Book
M:2/4
L:1/16
K:D
|:d2d2 BcdB|A2F2 A2F2|d2d2 BcdB|A2F2 E2D2|
d2d2 BcdB|A2F2 A2de|f2d2 edc2|d4 d2:|
|:de|f2d2 d2ef|g2f2 e2de|f2d2 A2d2|f2df a3g|
f2d2 d2ef|g2f2 e2de|f2d2 edc2|[1 d4 d2:|[2 d4 d4
